src/static/logos/celluloid.svg

<?xml version="1.0" encoding="UTF-8" standalone="no"?>
<svg width="256px" height="256px" viewBox="0 0 256 256" version="1.1" xmlns="http://www.w3.org/2000/svg" xmlns:xlink="http://www.w3.org/1999/xlink" preserveAspectRatio="xMidYMid">
	<g>
		<path d="M157.335864,243.653424 C165.297898,235.69139 169.68461,225.106441 169.68461,213.848949 C169.68461,213.671051 169.682441,213.493153 169.680271,213.313085 C181.152542,213.477966 191.934915,209.060881 200.02278,200.970847 C207.984814,193.010983 212.369356,182.421695 212.369356,171.162034 C212.369356,170.984136 212.369356,170.804068 212.367186,170.626169 C223.783051,170.758508 234.624,166.371797 242.709695,158.281763 C250.671729,150.319729 255.056271,139.73261 255.056271,128.475119 C255.056271,117.215458 250.671729,106.628339 242.709695,98.6663051 C234.624,90.5784407 223.783051,86.1808814 212.367186,86.3218983 C212.369356,86.144 212.369356,85.9661017 212.369356,85.7882034 C212.369356,74.5263729 207.984814,63.9414237 200.024949,55.9793898 C191.937085,47.8915254 181.12,43.4874576 169.680271,43.6349831 C169.682441,43.4570847 169.68461,43.2791864 169.68461,43.1012881 C169.68461,31.8394576 165.297898,21.2545085 157.335864,13.2924746 C149.373831,5.33044068 138.788881,0.945898305 127.527051,0.945898305 C116.269559,0.945898305 105.682441,5.33044068 97.7204068,13.2924746 C89.7583729,21.252339 85.3738305,31.8394576 85.3738305,43.1012881 C85.3738305,43.2791864 85.3738305,43.4570847 85.376,43.6349831 C73.9427797,43.4874576 63.1213559,47.8915254 55.0334915,55.9793898 C47.0714576,63.9414237 42.6869153,74.5263729 42.6869153,85.7882034 C42.6869153,85.9661017 42.6869153,86.144 42.6890847,86.3218983 C31.2471864,86.1808814 20.4344407,90.5762712 12.3444068,98.6663051 C4.38454237,106.628339 0,117.215458 0,128.475119 C0,139.73478 4.38454237,150.319729 12.3444068,158.279593 C20.4322712,166.371797 31.2667119,170.758508 42.6890847,170.626169 C42.6869153,170.804068 42.6869153,170.984136 42.6869153,171.162034 C42.6869153,182.421695 47.0714576,193.006644 55.0334915,200.968678 C63.1213559,209.056542 73.8928814,213.41939 85.376,213.313085 C85.3738305,213.493153 85.3738305,213.671051 85.3738305,213.848949 C85.3738305,225.10861 89.7583729,235.693559 97.7204068,243.653424 C105.680271,251.615458 116.26739,256 127.527051,256 C138.791051,256 149.378169,251.615458 157.335864,243.653424" fill="#0A0B09"></path>
		<path d="M190.086508,191.032407 C184.777763,196.336814 177.722576,199.261288 170.213966,199.261288 C162.709695,199.261288 155.650169,196.336814 150.343593,191.032407 C139.387661,180.074305 139.387661,162.247593 150.343593,151.287322 C155.650169,145.980746 162.709695,143.058441 170.213966,143.058441 C177.722576,143.058441 184.777763,145.980746 190.086508,151.287322 C195.393085,156.598237 198.31539,163.653424 198.31539,171.162034 C198.31539,178.666305 195.393085,185.723661 190.086508,191.032407" fill="#FFFFFF"></path>
		<path d="M127.527051,156.574373 C120.02061,156.574373 112.963254,153.654237 107.656678,148.345492 C102.350102,143.036746 99.4256271,135.981559 99.4256271,128.475119 C99.4256271,120.966508 102.350102,113.911322 107.656678,108.602576 C112.963254,103.293831 120.02061,100.373695 127.527051,100.373695 C135.035661,100.373695 142.090847,103.293831 147.399593,108.602576 C152.708339,113.911322 155.628475,120.966508 155.628475,128.475119 C155.628475,135.981559 152.708339,143.036746 147.399593,148.345492 C142.090847,153.654237 135.035661,156.574373 127.527051,156.574373" fill="#FFFFFF"></path>
		<path d="M212.900881,100.373695 C220.407322,100.373695 227.464678,103.293831 232.771254,108.602576 C238.08,113.911322 241.004475,120.966508 241.004475,128.475119 C241.004475,135.981559 238.08,143.036746 232.771254,148.345492 C227.464678,153.654237 220.407322,156.574373 212.900881,156.574373 C205.394441,156.574373 198.337085,153.654237 193.030508,148.345492 C187.721763,143.036746 184.799458,135.981559 184.799458,128.475119 C184.799458,120.966508 187.721763,113.911322 193.030508,108.602576 C198.337085,103.293831 205.394441,100.373695 212.900881,100.373695" fill="#FFFFFF"></path>
		<path d="M170.213966,57.6846102 C177.722576,57.6846102 184.777763,60.6090847 190.086508,65.915661 C195.393085,71.2244068 198.31539,78.2817627 198.31539,85.7882034 C198.31539,93.2946441 195.393085,100.349831 190.086508,105.658576 C184.777763,110.967322 177.722576,113.889627 170.213966,113.889627 C162.709695,113.889627 155.650169,110.967322 150.343593,105.658576 C139.387661,94.7026441 139.387661,76.8737627 150.343593,65.915661 C155.650169,60.6090847 162.709695,57.6846102 170.213966,57.6846102" fill="#FFFFFF"></path>
		<path d="M107.656678,23.2287458 C112.963254,17.9221695 120.02061,14.9998644 127.527051,14.9998644 C135.035661,14.9998644 142.090847,17.9221695 147.399593,23.2287458 C152.708339,28.539661 155.628475,35.5948475 155.628475,43.1012881 C155.628475,50.6077288 152.708339,57.6650847 147.399593,62.971661 C142.090847,68.2804068 135.035661,71.2048814 127.527051,71.2048814 C120.02061,71.2048814 112.963254,68.2804068 107.656678,62.971661 C102.350102,57.6650847 99.4256271,50.6077288 99.4256271,43.1012881 C99.4256271,35.5948475 102.350102,28.539661 107.656678,23.2287458" fill="#FFFFFF"></path>
		<path d="M64.9697627,65.915661 C70.2785085,60.6090847 77.3336949,57.6846102 84.8401356,57.6846102 C92.3465763,57.6846102 99.4039322,60.6090847 104.714847,65.915661 C115.66861,76.8737627 115.66861,94.7026441 104.714847,105.658576 C99.4039322,110.967322 92.3465763,113.889627 84.8401356,113.889627 C77.3336949,113.889627 70.2785085,110.967322 64.9697627,105.658576 C59.6631864,100.349831 56.7387119,93.2946441 56.7387119,85.7882034 C56.7387119,78.2817627 59.6631864,71.2244068 64.9697627,65.915661" fill="#FFFFFF"></path>
		<path d="M42.1575593,156.574373 C34.6489492,156.574373 27.5937627,153.654237 22.2828475,148.345492 C16.9762712,143.036746 14.0539661,135.981559 14.0539661,128.475119 C14.0539661,120.966508 16.9762712,113.911322 22.2828475,108.602576 C27.5937627,103.293831 34.6489492,100.373695 42.1575593,100.373695 C49.6618305,100.373695 56.7191864,103.293831 62.0257627,108.602576 C67.3345085,113.911322 70.2568136,120.966508 70.2568136,128.475119 C70.2568136,135.981559 67.3345085,143.036746 62.0257627,148.345492 C56.7191864,153.654237 49.6618305,156.574373 42.1575593,156.574373" fill="#FFFFFF"></path>
		<path d="M84.8401356,199.261288 C77.3336949,199.261288 70.2785085,196.336814 64.9697627,191.032407 C59.6631864,185.723661 56.7387119,178.666305 56.7387119,171.162034 C56.7387119,163.653424 59.6631864,156.598237 64.9697627,151.287322 C70.2785085,145.980746 77.3336949,143.058441 84.8401356,143.058441 C92.3465763,143.058441 99.4039322,145.980746 104.714847,151.287322 C115.66861,162.247593 115.66861,180.074305 104.714847,191.032407 C99.4039322,196.336814 92.3465763,199.261288 84.8401356,199.261288" fill="#FFFFFF"></path>
		<path d="M99.4256271,213.848949 C99.4256271,206.342508 102.350102,199.282983 107.656678,193.976407 C112.963254,188.667661 120.02061,185.745356 127.527051,185.745356 C135.035661,185.745356 142.090847,188.667661 147.399593,193.976407 C152.708339,199.282983 155.628475,206.342508 155.628475,213.848949 C155.628475,221.35322 152.708339,228.408407 147.399593,233.719322 C142.090847,239.025898 135.035661,241.946034 127.527051,241.946034 C120.02061,241.946034 112.963254,239.025898 107.656678,233.719322 C102.350102,228.408407 99.4256271,221.35322 99.4256271,213.848949" fill="#FFFFFF"></path>
	</g>
</svg>

<svg width="256" height="256" xmlns="http://www.w3.org/2000/svg" preserveAspectRatio="xMidYMid"><path d="M157.336 243.653c7.962-7.962 12.349-18.547 12.349-29.804 0-.178-.003-.356-.005-.536 11.473.165 22.255-4.252 30.343-12.342 7.962-7.96 12.346-18.55 12.346-29.809 0-.178 0-.358-.002-.536 11.416.133 22.257-4.254 30.343-12.344 7.962-7.962 12.346-18.55 12.346-29.807 0-11.26-4.384-21.847-12.346-29.809-8.086-8.088-18.927-12.485-30.343-12.344.002-.178.002-.356.002-.534 0-11.262-4.384-21.847-12.344-29.809-8.088-8.087-18.905-12.492-30.345-12.344.002-.178.005-.356.005-.534 0-11.262-4.387-21.846-12.35-29.809C149.375 5.33 138.79.946 127.528.946c-11.257 0-21.845 4.384-29.807 12.346-7.962 7.96-12.346 18.547-12.346 29.81 0 .177 0 .355.002.533-11.433-.148-22.255 4.257-30.343 12.344-7.962 7.962-12.346 18.547-12.346 29.81 0 .177 0 .355.002.533-11.442-.141-22.255 4.254-30.345 12.344C4.384 106.628 0 117.216 0 128.476c0 11.259 4.385 21.844 12.344 29.804 8.088 8.092 18.923 12.479 30.345 12.346-.002.178-.002.358-.002.536 0 11.26 4.384 21.845 12.346 29.807 8.088 8.088 18.86 12.45 30.343 12.344-.002.18-.002.358-.002.536 0 11.26 4.384 21.845 12.346 29.804 7.96 7.962 18.547 12.347 29.807 12.347 11.264 0 21.851-4.385 29.809-12.347" fill="#0A0B09"/><path d="M190.087 191.032c-5.31 5.305-12.364 8.23-19.873 8.23-7.504 0-14.564-2.925-19.87-8.23-10.956-10.958-10.956-28.784 0-39.745 5.306-5.306 12.366-8.229 19.87-8.229 7.509 0 14.564 2.923 19.873 8.23 5.306 5.31 8.228 12.365 8.228 19.874 0 7.504-2.922 14.562-8.228 19.87m-62.56-34.458c-7.506 0-14.564-2.92-19.87-8.229-5.307-5.308-8.231-12.363-8.231-19.87 0-7.508 2.924-14.564 8.23-19.872 5.307-5.31 12.365-8.23 19.871-8.23 7.509 0 14.564 2.92 19.873 8.23 5.308 5.308 8.228 12.364 8.228 19.872 0 7.507-2.92 14.562-8.228 19.87-5.31 5.31-12.364 8.23-19.873 8.23m85.373-56.201c7.507 0 14.565 2.92 19.871 8.229 5.309 5.308 8.233 12.364 8.233 19.872 0 7.507-2.924 14.562-8.233 19.87-5.306 5.31-12.364 8.23-19.87 8.23-7.507 0-14.564-2.92-19.87-8.23-5.31-5.308-8.232-12.363-8.232-19.87 0-7.508 2.923-14.564 8.232-19.872 5.306-5.31 12.363-8.23 19.87-8.23m-42.687-42.688c7.509 0 14.564 2.924 19.873 8.23 5.306 5.31 8.228 12.367 8.228 19.873 0 7.507-2.922 14.562-8.228 19.87-5.31 5.31-12.364 8.232-19.873 8.232-7.504 0-14.564-2.923-19.87-8.231-10.956-10.956-10.956-28.785 0-39.743 5.306-5.307 12.366-8.231 19.87-8.231m-62.557-34.456c5.306-5.307 12.364-8.23 19.87-8.23 7.509 0 14.564 2.923 19.873 8.23 5.308 5.31 8.228 12.366 8.228 19.872 0 7.507-2.92 14.564-8.228 19.87-5.31 5.31-12.364 8.234-19.873 8.234-7.506 0-14.564-2.925-19.87-8.233-5.307-5.307-8.231-12.364-8.231-19.87 0-7.507 2.924-14.562 8.23-19.873M64.97 65.916c5.309-5.307 12.364-8.231 19.87-8.231 7.507 0 14.564 2.924 19.875 8.23 10.954 10.959 10.954 28.788 0 39.744-5.311 5.308-12.368 8.23-19.875 8.23-7.506 0-14.561-2.922-19.87-8.23-5.307-5.31-8.231-12.364-8.231-19.87 0-7.507 2.924-14.565 8.23-19.873m-22.811 90.658c-7.51 0-14.564-2.92-19.875-8.229-5.307-5.308-8.229-12.363-8.229-19.87 0-7.508 2.922-14.564 8.229-19.872 5.31-5.31 12.366-8.23 19.875-8.23 7.504 0 14.561 2.92 19.868 8.23 5.309 5.308 8.23 12.364 8.23 19.872 0 7.507-2.921 14.562-8.23 19.87-5.307 5.31-12.364 8.23-19.868 8.23m42.682 42.686c-7.506 0-14.561-2.924-19.87-8.229-5.307-5.308-8.231-12.366-8.231-19.87 0-7.509 2.924-14.564 8.23-19.875 5.31-5.306 12.365-8.229 19.871-8.229 7.507 0 14.564 2.923 19.875 8.23 10.954 10.96 10.954 28.786 0 39.744-5.311 5.305-12.368 8.23-19.875 8.23m14.586 14.587c0-7.506 2.924-14.566 8.23-19.873 5.307-5.308 12.365-8.23 19.871-8.23 7.509 0 14.564 2.922 19.873 8.23 5.308 5.307 8.228 12.367 8.228 19.873 0 7.504-2.92 14.56-8.228 19.87-5.31 5.307-12.364 8.227-19.873 8.227-7.506 0-14.564-2.92-19.87-8.227-5.307-5.31-8.231-12.366-8.231-19.87" fill="#FFF"/></svg>
